static/icons/shield.svg

<svg width="50" height="60" viewBox="0 0 50 60" fill="none" xmlns="http://www.w3.org/2000/svg">
<path d="M25 59.9994C24.8925 59.9994 24.7875 59.9869 24.6825 59.9569C24.435 59.8944 0 53.1994 0 30.4469V9.99938C0 9.47688 0.325 9.00688 0.8175 8.82688L24.5675 0.076875C24.845 -0.025625 25.1525 -0.025625 25.4325 0.076875L49.1825 8.82688C49.675 9.00688 50 9.47688 50 9.99938V30.4469C50 53.2019 25.565 59.8944 25.3175 59.9594C25.2125 59.9869 25.1075 59.9994 25 59.9994V59.9994ZM2.5 10.8719V30.4469C2.5 50.1519 22.125 56.6119 25 57.4519C27.875 56.6119 47.5 50.1519 47.5 30.4469V10.8719L25 2.58188L2.5 10.8719Z" fill="#00FFF0"/>
<path d="M32.825 39.9993H15.87C11.9425 39.9993 8.75 36.7468 8.75 32.7493C8.75 29.0768 11.445 26.0343 14.9275 25.5618C16.0425 20.8993 20.205 17.4993 25 17.4993C28.7775 17.4993 32.26 19.6118 34.0675 22.9368C38.15 23.5393 41.25 27.1268 41.25 31.4168C41.25 36.1493 37.47 39.9993 32.825 39.9993V39.9993ZM25 19.9993C21.105 19.9993 17.7575 22.9743 17.2125 26.9218C17.1275 27.5393 16.5975 27.9993 15.975 27.9993C13.3225 27.9993 11.25 30.1293 11.25 32.7493C11.25 35.3693 13.3225 37.4993 15.87 37.4993H32.8275C36.095 37.4993 38.7525 34.7718 38.7525 31.4168C38.7525 28.1943 36.3075 25.5343 33.1875 25.3568C32.725 25.3318 32.3125 25.0493 32.12 24.6268C30.8375 21.8168 28.0425 19.9993 25 19.9993V19.9993Z" fill="#00FFF0"/>
</svg>

<svg width="50" height="60" fill="none" xmlns="http://www.w3.org/2000/svg"><path d="M25 60h-.3C24.4 59.9 0 53.2 0 30.4V10c0-.5.3-1 .8-1.2L24.6.1c.2-.1.6-.1.8 0l23.8 8.7c.5.2.8.7.8 1.2v20.4C50 53.2 25.6 60 25.3 60H25zM2.5 10.9v19.5c0 19.8 19.6 26.2 22.5 27 2.9-.8 22.5-7.2 22.5-27V11L25 2.6 2.5 10.9z" fill="#00FFF0"/><path d="M32.8 40h-17c-3.9 0-7-3.3-7-7.3 0-3.6 2.6-6.7 6.1-7.1 1.1-4.7 5.3-8.1 10.1-8.1 3.8 0 7.3 2.1 9 5.4 4.1.6 7.3 4.2 7.3 8.5 0 4.7-3.8 8.6-8.5 8.6zM25 20a8 8 0 00-7.8 7c0 .5-.6 1-1.2 1a4.7 4.7 0 00-4.8 4.7c0 2.7 2.1 4.8 4.7 4.8h17a6 6 0 005.9-6 6 6 0 00-5.6-6.1c-.5 0-.9-.4-1-.8A7.9 7.9 0 0025 20z" fill="#00FFF0"/></svg>
